img/img.svg

<svg width="21" height="20" viewBox="0 0 21 20" fill="none" xmlns="http://www.w3.org/2000/svg">
<path fill-rule="evenodd" clip-rule="evenodd" d="M3.5 6V4C3.5 3.44772 3.94772 3 4.5 3H18.5C19.0523 3 19.5 3.44772 19.5 4V14C19.5 14.5523 19.0523 15 18.5 15H16.5V17C16.5 17.5523 16.0523 18 15.5 18H1.5C0.947715 18 0.5 17.5523 0.5 17V7C0.5 6.44772 0.947715 6 1.5 6H3.5ZM15.5 15H4.5C3.94772 15 3.5 14.5523 3.5 14V7H1.5V17H15.5V15ZM4.5 4V14H18.5V4H4.5ZM18.5 14H4.5V13L7.5 10L10.5 12L14.5 8L18.5 13V14ZM10 9C9.17157 9 8.5 8.32843 8.5 7.5C8.5 6.67157 9.17157 6 10 6C10.8284 6 11.5 6.67157 11.5 7.5C11.5 8.32843 10.8284 9 10 9Z" fill="white"/>
</svg>

<svg width="21" height="20" fill="none" xmlns="http://www.w3.org/2000/svg"><path fill-rule="evenodd" clip-rule="evenodd" d="M3.5 6V4a1 1 0 0 1 1-1h14a1 1 0 0 1 1 1v10a1 1 0 0 1-1 1h-2v2a1 1 0 0 1-1 1h-14a1 1 0 0 1-1-1V7a1 1 0 0 1 1-1h2zm12 9h-11a1 1 0 0 1-1-1V7h-2v10h14v-2zM4.5 4v10h14V4h-14zm14 10h-14v-1l3-3 3 2 4-4 4 5v1zM10 9a1.5 1.5 0 1 1 0-3 1.5 1.5 0 0 1 0 3z" fill="#fff"/></svg>
